!!!OTL: 1319. Soldatenleben.
!!!ODT: 1807
!!!ARE: Europa, Mitteleuropa, Deutschland
!!!SCT: E1319
!!!TXL: @@DE
!!!YEM: Copyright 1995, estate of Helmut Schaffrath.
**kern	**text
*ICvox	*
*M2/4	*
*k[f#]	*
*G:	*
!LO:TX:a:t=Heiter.	!
!LO:TX:a:t=Aeltere Form. 1807.	!
{8d	Kein
=1	=1
8g	be-
8b	-ſer
8b	Le-
8dd	-ben
=2	=2
(4dd	iſt
8b)}	.
{8b	auf
=3	=3
8.cc	die-
16dd	-ſer
8ee	Welt
8cc	ʒu
=4	=4
4cc	den-
8b;}	-ken,
{8d	Als
=5	=5
8g	wenn
8b	man
8b	trinkt
8dd	und
=6	=6
(4dd	ißt
8b)}	.
{8b	und
=7	=7
8.cc	läßt
16dd	ſich
8ee	gar
8cc	nichts
=8	=8
4cc	krän-
8b;}	-ken.
{8dd	Denn
=9	=9
8dd	ein
8a	Sol-
8a	-dat
8dd	im
=10	=10
(4dd	Feld
8cc#)}	.
{8dd	ſei'm
=11	=11
8ee	Her-
8a	-ren
8a	die-
8g	-net
=12	=12
(4g	treu;
8f#)}	.
{8d	hat
=13	=13
8g	er
8b	gleich
8b	nicht
8dd	viel
=14	=14
(4dd	Geld,
8b)}	.
{8dd	hat
=15	=15
8ee	er
8cc	doch
8a	Ehr
8f#	da-
=16	=16
4g}	-bei.
{8b	Tral-
16b	-la-
16b	-le-
=17	=17
8b	-ra
8b	la
[4b	la!
=18	=18
4b]	.
8r}	.
==	==
!!!AGN: Staende -, Soldaten - Lied; historisch, Siebenjaehriger Krieg 1807
!!!ONB: ESAC (Essen Associative Code) Database: ERK3
!!!AMT: simple duple
!!!AIN: vox
!!!EED: Helmut Schaffrath
!!!EEV: 1.0
!!!GTL: Staendelieder (Berufslieder). 1. Soldaten- und Kriegslieder. Soldatenlieder seit dem 30jaehr. Kriege.
!!!URL-scan: https://rosdok.uni-rostock.de/mcrviewer/recordIdentifier/rosdok_ppn745177999/iview2/phys_0207.iview2?x=-128.77276441889308&y=892.8175069646677&scale=0.5870222003877485&rotation=0&layout=singlePageLayout
!!!ENC: Anna Maria Matuszewska
!!!EEV: 2024/12/27
*-	*-
